;FLAVOR:Marlin
;TIME:4184
;Filament used: 3.71664m
;Layer height: 0.3
;MINX:67.759
;MINY:99.7
;MINZ:0.28
;MAXX:167.241
;MAXY:136.153
;MAXZ:11.88
;Generated with Cura_SteamEngine 4.6.1
M140 S60
M105
M190 S60
M104 S215
M105
M109 S215
M82 ;absolute extrusion mode
; Ender 3 Custom Start G-code
G92 E0 ; Reset Extruder
G28 ; Home all axes
G1 Z2.0 F3000 ; Move Z Axis up little to prevent scratching of Heat Bed
G1 X0.1 Y20 Z0.3 F5000.0 ; Move to start position
G1 X0.1 Y200.0 Z0.3 F1500.0 E15 ; Draw the first line
G1 X0.4 Y200.0 Z0.3 F5000.0 ; Move to side a little
G1 X0.4 Y20 Z0.3 F1500.0 E30 ; Draw the second line
G92 E0 ; Reset Extruder
G1 Z2.0 F3000 ; Move Z Axis up little to prevent scratching of Heat Bed
G1 X5 Y20 Z0.3 F5000.0 ; Move over to prevent blob squish
G92 E0
G92 E0
;LAYER_COUNT:44
;LAYER:0
M107
M204 S500
;MESH:cable_tension_sensor_holder_parts.stl(1)
G0 F6000 X78.959 Y134.9 Z0.28
;TYPE:WALL-INNER
G1 F1200 X68.159 Y134.9 E0.50289
G1 X68.159 Y100.1 E2.12333
G1 X78.959 Y100.1 E2.62622
G1 X78.959 Y134.9 E4.24665
G0 F6000 X79.359 Y135.3
;TYPE:WALL-OUTER
G1 F1200 X67.759 Y135.3 E4.7868
G1 X67.759 Y99.7 E6.44448
G1 X79.359 Y99.7 E6.98463
G1 X79.359 Y135.3 E8.64231
G0 F6000 X79.089 Y135.03
G0 X78.849 Y134.51
G0 X78.569 Y134.51
;TYPE:SKIN
G1 F1200 X68.549 Y134.51 E9.10889
G1 X68.549 Y100.49 E10.693
G1 X78.569 Y100.49 E11.15957
G1 X78.569 Y134.51 E12.74369
G0 F6000 X78.849 Y134.51
G0 X78.785 Y134.697
G0 X69.295 Y134.79
G0 X69.295 Y134.349
G1 F1200 X68.708 Y133.762 E12.78234
G0 F6000 X68.708 Y133.196
G1 F1200 X69.861 Y134.349 E12.85827
G0 F6000 X70.427 Y134.349
G1 F1200 X68.708 Y132.631 E12.97144
G0 F6000 X68.708 Y132.065
G1 F1200 X70.992 Y134.349 E13.12184
G0 F6000 X71.558 Y134.349
G1 F1200 X68.708 Y131.499 E13.30952
G0 F6000 X68.708 Y130.934
G1 F1200 X72.124 Y134.349 E13.53443
G0 F6000 X72.689 Y134.349
G1 F1200 X68.708 Y130.368 E13.79659
G0 F6000 X68.708 Y129.802
G1 F1200 X73.255 Y134.349 E14.09602
G0 F6000 X73.821 Y134.349
G1 F1200 X68.708 Y129.237 E14.43268
G0 F6000 X68.708 Y128.671
G1 F1200 X74.386 Y134.349 E14.80659
G0 F6000 X74.952 Y134.349
G1 F1200 X68.708 Y128.105 E15.21777
G0 F6000 X68.708 Y127.54
G1 F1200 X75.518 Y134.349 E15.66619
G0 F6000 X76.083 Y134.349
G1 F1200 X68.708 Y126.974 E16.15184
G0 F6000 X68.708 Y126.408
G1 F1200 X76.649 Y134.349 E16.67477
G0 F6000 X77.215 Y134.349
G1 F1200 X68.708 Y125.843 E17.23494
G0 F6000 X68.708 Y125.277
G1 F1200 X77.781 Y134.349 E17.83238
G0 F6000 X78.346 Y134.349
G1 F1200 X68.708 Y124.711 E18.46706
G0 F6000 X68.708 Y124.146
G1 F1200 X78.408 Y133.846 E19.10582
G0 F6000 X78.408 Y133.28
G1 F1200 X68.708 Y123.58 E19.74458
G0 F6000 X68.708 Y123.014
G1 F1200 X78.408 Y132.714 E20.38334
G0 F6000 X78.408 Y132.149
G1 F1200 X68.708 Y122.448 E21.02214
G0 F6000 X68.708 Y121.883
G1 F1200 X78.408 Y131.583 E21.6609
G0 F6000 X78.408 Y131.017
G1 F1200 X68.708 Y121.317 E22.29966
G0 F6000 X68.708 Y120.751
G1 F1200 X78.408 Y130.452 E22.93845
G0 F6000 X78.408 Y129.886
G1 F1200 X68.708 Y120.186 E23.57722
G0 F6000 X68.708 Y119.62
G1 F1200 X78.408 Y129.32 E24.21598
G0 F6000 X78.408 Y128.754
G1 F1200 X68.708 Y119.054 E24.85474
G0 F6000 X68.708 Y118.489
G1 F1200 X78.408 Y128.189 E25.4935
G0 F6000 X78.408 Y127.623
G1 F1200 X68.708 Y117.923 E26.13226
G0 F6000 X68.708 Y117.357
G1 F1200 X78.408 Y127.057 E26.77102
G0 F6000 X78.408 Y126.492
G1 F1200 X68.708 Y116.792 E27.40978
G0 F6000 X68.708 Y116.226
G1 F1200 X78.408 Y125.926 E28.04855
G0 F6000 X78.408 Y125.36
G1 F1200 X68.708 Y115.66 E28.68731
G0 F6000 X68.708 Y115.095
G1 F1200 X78.408 Y124.795 E29.32607
G0 F6000 X78.408 Y124.229
G1 F1200 X68.708 Y114.529 E29.96483
G0 F6000 X68.708 Y113.963
G1 F1200 X78.408 Y123.663 E30.60359
G0 F6000 X78.408 Y123.098
G1 F1200 X68.708 Y113.398 E31.24235
G0 F6000 X68.708 Y112.832
G1 F1200 X78.408 Y122.532 E31.88112
G0 F6000 X78.408 Y121.966
G1 F1200 X68.708 Y112.266 E32.51988
G0 F6000 X68.708 Y111.7
G1 F1200 X78.408 Y121.401 E33.15867
G0 F6000 X78.408 Y120.835
G1 F1200 X68.708 Y111.135 E33.79743
G0 F6000 X68.708 Y110.569
G1 F1200 X78.408 Y120.269 E34.43619
G0 F6000 X78.408 Y119.703
G1 F1200 X68.708 Y110.003 E35.07496
G0 F6000 X68.708 Y109.438
G1 F1200 X78.408 Y119.138 E35.71372
G0 F6000 X78.408 Y118.572
G1 F1200 X68.708 Y108.872 E36.35248
G0 F6000 X68.708 Y108.306
G1 F1200 X78.408 Y118.006 E36.99124
G0 F6000 X78.408 Y117.441
G1 F1200 X68.708 Y107.741 E37.63
G0 F6000 X68.708 Y107.175
G1 F1200 X78.408 Y116.875 E38.26876
G0 F6000 X78.408 Y116.309
G1 F1200 X68.708 Y106.609 E38.90753
G0 F6000 X68.708 Y106.044
G1 F1200 X78.408 Y115.744 E39.54629
G0 F6000 X78.408 Y115.178
G1 F1200 X68.708 Y105.478 E40.18505
G0 F6000 X68.708 Y104.912
G1 F1200 X78.408 Y114.612 E40.82381
G0 F6000 X78.408 Y114.047
G1 F1200 X68.708 Y104.347 E41.46257
G0 F6000 X68.708 Y103.781
G1 F1200 X78.408 Y113.481 E42.10133
G0 F6000 X78.408 Y112.915
G1 F1200 X68.708 Y103.215 E42.74009
G0 F6000 X68.708 Y102.649
G1 F1200 X78.408 Y112.35 E43.37889
G0 F6000 X78.408 Y111.784
G1 F1200 X68.708 Y102.084 E44.01765
G0 F6000 X68.708 Y101.518
G1 F1200 X78.408 Y111.218 E44.65641
G0 F6000 X78.408 Y110.653
G1 F1200 X68.708 Y100.952 E45.29521
G0 F6000 X68.97 Y100.648
G1 F1200 X78.408 Y110.087 E45.91675
G0 F6000 X78.408 Y109.521
G1 F1200 X69.536 Y100.648 E46.50102
G0 F6000 X70.101 Y100.648
G1 F1200 X78.408 Y108.955 E47.04805
G0 F6000 X78.408 Y108.39
G1 F1200 X70.667 Y100.648 E47.55784
G0 F6000 X71.233 Y100.648
G1 F1200 X78.408 Y107.824 E48.03036
G0 F6000 X78.408 Y107.258
G1 F1200 X71.798 Y100.648 E48.46564
G0 F6000 X72.364 Y100.648
G1 F1200 X78.408 Y106.693 E48.86368
G0 F6000 X78.408 Y106.127
G1 F1200 X72.93 Y100.648 E49.22445
G0 F6000 X73.495 Y100.648
G1 F1200 X78.408 Y105.561 E49.54798
G0 F6000 X78.408 Y104.996
G1 F1200 X74.061 Y100.648 E49.83427
G0 F6000 X74.627 Y100.648
G1 F1200 X78.408 Y104.43 E50.08328
G0 F6000 X78.408 Y103.864
G1 F1200 X75.193 Y100.648 E50.29503
G0 F6000 X75.758 Y100.648
G1 F1200 X78.408 Y103.299 E50.46957
G0 F6000 X78.408 Y102.733
G1 F1200 X76.324 Y100.648 E50.60684
G0 F6000 X76.89 Y100.648
G1 F1200 X78.408 Y102.167 E50.70683
G0 F6000 X78.408 Y101.602
G1 F1200 X77.455 Y100.648 E50.76962
G0 F6000 X78.021 Y100.648
G1 F1200 X78.408 Y101.036 E50.79514
G0 F6000 X78.759 Y101.036
;MESH:cable_tension_sensor_holder_parts.stl
G0 X78.849 Y101.036
G0 X79.139 Y134.9
G0 X80.224 Y134.9
G0 X100.894 Y134.9
G0 X101.979 Y134.9
G0 X112.959 Y134.9
;TYPE:WALL-INNER
G1 F1200 X102.159 Y134.9 E51.29804
G1 X102.159 Y100.1 E52.91847
G1 X112.959 Y100.1 E53.42136
G1 X112.959 Y134.9 E55.0418
G0 F6000 X113.359 Y135.3
;TYPE:WALL-OUTER
G1 F1200 X101.759 Y135.3 E55.58194
G1 X101.759 Y99.7 E57.23963
G1 X113.359 Y99.7 E57.77977
G1 X113.359 Y135.3 E59.43746
G0 F6000 X113.089 Y135.03
G0 X112.849 Y134.51
G0 X112.569 Y134.51
;TYPE:SKIN
G1 F1200 X102.549 Y134.51 E59.90403
G1 X102.549 Y100.49 E61.48814
G1 X112.569 Y100.49 E61.95472
G1 X112.569 Y134.51 E63.53883
G0 F6000 X112.849 Y134.51
G0 X112.785 Y134.697
G0 X103.236 Y134.79
G0 X103.236 Y134.348
G1 F1200 X102.708 Y133.821 E63.57357
G0 F6000 X102.708 Y133.255
G1 F1200 X103.801 Y134.348 E63.64554
G0 F6000 X104.367 Y134.348
G1 F1200 X102.708 Y132.69 E63.75476
G0 F6000 X102.708 Y132.124
G1 F1200 X104.933 Y134.348 E63.90124
G0 F6000 X105.498 Y134.348
G1 F1200 X102.708 Y131.558 E64.08497
G0 F6000 X102.708 Y130.992
G1 F1200 X106.064 Y134.348 E64.30597
G0 F6000 X106.63 Y134.348
G1 F1200 X102.708 Y130.427 E64.56421
G0 F6000 X102.708 Y129.861
G1 F1200 X107.195 Y134.348 E64.85968
G0 F6000 X107.761 Y134.348
G1 F1200 X102.708 Y129.295 E65.19243
G0 F6000 X102.708 Y128.73
G1 F1200 X108.327 Y134.348 E65.56242
G0 F6000 X108.893 Y134.348
G1 F1200 X102.708 Y128.164 E65.96968
G0 F6000 X102.708 Y127.598
G1 F1200 X109.458 Y134.348 E66.41418
G0 F6000 X110.024 Y134.348
G1 F1200 X102.708 Y127.033 E66.89592
G0 F6000 X102.708 Y126.467
G1 F1200 X110.59 Y134.348 E67.41493
G0 F6000 X111.155 Y134.348
G1 F1200 X102.708 Y125.901 E67.97118
G0 F6000 X102.708 Y125.336
G1 F1200 X111.721 Y134.348 E68.56466
G0 F6000 X112.287 Y134.348
G1 F1200 X102.708 Y124.77 E69.19542
G0 F6000 X102.708 Y124.204
G1 F1200 X112.408 Y133.904 E69.83419
G0 F6000 X112.408 Y133.339
G1 F1200 X102.708 Y123.639 E70.47295
G0 F6000 X102.708 Y123.073
G1 F1200 X112.408 Y132.773 E71.11171
G0 F6000 X112.408 Y132.207
G1 F1200 X102.708 Y122.507 E71.75047
G0 F6000 X102.708 Y121.941
G1 F1200 X112.408 Y131.642 E72.38927
G0 F6000 X112.408 Y131.076
G1 F1200 X102.708 Y121.376 E73.02803
G0 F6000 X102.708 Y120.81
G1 F1200 X112.408 Y130.51 E73.66679
G0 F6000 X112.408 Y129.945
G1 F1200 X102.708 Y120.244 E74.30558
G0 F6000 X102.708 Y119.679
G1 F1200 X112.408 Y129.379 E74.94434
G0 F6000 X112.408 Y128.813
G1 F1200 X102.708 Y119.113 E75.58311
G0 F6000 X102.708 Y118.547
G1 F1200 X112.408 Y128.247 E76.22187
G0 F6000 X112.408 Y127.682
G1 F1200 X102.708 Y117.982 E76.86063
G0 F6000 X102.707 Y117.415
G1 F1200 X112.408 Y127.116 E77.49946
G0 F6000 X112.408 Y126.55
G1 F1200 X102.707 Y116.85 E78.13825
G0 F6000 X102.707 Y116.284
G1 F1200 X112.408 Y125.985 E78.77708
G0 F6000 X112.408 Y125.419
G1 F1200 X102.707 Y115.718 E79.41591
G0 F6000 X102.707 Y115.153
G1 F1200 X112.408 Y124.853 E80.0547
G0 F6000 X112.408 Y124.288
G1 F1200 X102.707 Y114.587 E80.69353
G0 F6000 X102.707 Y114.021
G1 F1200 X112.408 Y123.722 E81.33236
G0 F6000 X112.408 Y123.156
G1 F1200 X102.707 Y113.455 E81.97118
G0 F6000 X102.707 Y112.89
G1 F1200 X112.408 Y122.591 E82.61001
G0 F6000 X112.408 Y122.025
G1 F1200 X102.707 Y112.324 E83.24884
G0 F6000 X102.707 Y111.758
G1 F1200 X112.408 Y121.459 E83.88767
G0 F6000 X112.408 Y120.894
G1 F1200 X102.707 Y111.193 E84.52649
G0 F6000 X102.707 Y110.627
G1 F1200 X112.408 Y120.328 E85.16532
G0 F6000 X112.408 Y119.762
G1 F1200 X102.707 Y110.061 E85.80415
G0 F6000 X102.707 Y109.496
G1 F1200 X112.408 Y119.196 E86.44294
G0 F6000 X112.408 Y118.631
G1 F1200 X102.707 Y108.93 E87.08177
G0 F6000 X102.707 Y108.364
G1 F1200 X112.408 Y118.065 E87.7206
G0 F6000 X112.408 Y117.499
G1 F1200 X102.707 Y107.799 E88.35939
G0 F6000 X102.707 Y107.233
G1 F1200 X112.408 Y116.934 E88.99822
G0 F6000 X112.408 Y116.368
G1 F1200 X102.707 Y106.667 E89.63705
G0 F6000 X102.707 Y106.102
G1 F1200 X112.408 Y115.802 E90.27584
G0 F6000 X112.408 Y115.237
G1 F1200 X102.707 Y105.536 E90.91467
G0 F6000 X102.707 Y104.97
G1 F1200 X112.408 Y114.671 E91.5535
G0 F6000 X112.408 Y114.105
G1 F1200 X102.707 Y104.405 E92.19229
G0 F6000 X102.707 Y103.839
G1 F1200 X112.408 Y113.54 E92.83112
G0 F6000 X112.408 Y112.974
G1 F1200 X102.707 Y103.273 E93.46994
G0 F6000 X102.707 Y102.707
G1 F1200 X112.408 Y112.408 E94.10877
G0 F6000 X112.408 Y111.843
G1 F1200 X102.707 Y102.142 E94.7476
G0 F6000 X102.707 Y101.576
G1 F1200 X112.408 Y111.277 E95.38643
G0 F6000 X112.408 Y110.711
G1 F1200 X102.707 Y101.01 E96.02525
G0 F6000 X102.913 Y100.65
G1 F1200 X112.408 Y110.146 E96.65055
G0 F6000 X112.408 Y109.58
G1 F1200 X103.478 Y100.65 E97.23861
G0 F6000 X104.044 Y100.65
G1 F1200 X112.408 Y109.014 E97.78939
G0 F6000 X112.408 Y108.448
G1 F1200 X104.61 Y100.65 E98.3029
G0 F6000 X105.175 Y100.65
G1 F1200 X112.408 Y107.883 E98.77921
G0 F6000 X112.408 Y107.317
G1 F1200 X105.741 Y100.65 E99.21824
G0 F6000 X106.307 Y100.65
G1 F1200 X112.408 Y106.751 E99.62
G0 F6000 X112.408 Y106.186
G1 F1200 X106.872 Y100.65 E99.98456
G0 F6000 X107.438 Y100.65
G1 F1200 X112.408 Y105.62 E100.31184
G0 F6000 X112.408 Y105.054
G1 F1200 X108.004 Y100.65 E100.60185
G0 F6000 X108.569 Y100.65
G1 F1200 X112.408 Y104.489 E100.85465
G0 F6000 X112.408 Y103.923
G1 F1200 X109.135 Y100.65 E101.07019
G0 F6000 X109.701 Y100.65
G1 F1200 X112.408 Y103.357 E101.24845
G0 F6000 X112.408 Y102.792
G1 F1200 X110.266 Y100.65 E101.3895
G0 F6000 X110.832 Y100.65
G1 F1200 X112.408 Y102.226 E101.49328
G0 F6000 X112.408 Y101.66
G1 F1200 X111.398 Y100.65 E101.55979
G0 F6000 X111.963 Y100.65
G1 F1200 X112.408 Y101.095 E101.5891
G0 F6000 X112.759 Y101.095
;MESH:cable_tension_sensor_holder_parts.stl(2)
G0 X112.849 Y101.095
G0 X113.139 Y134.9
G0 X114.224 Y134.9
G0 X134.894 Y134.9
G0 X135.979 Y134.9
G0 X136.159 Y134.9
;TYPE:WALL-INNER
G1 F1200 X136.159 Y100.1 E103.20953
G1 X146.959 Y100.1 E103.71243
G1 X146.959 Y134.9 E105.33286
G1 X136.159 Y134.9 E105.83575
G0 F6000 X135.759 Y135.3
;TYPE:WALL-OUTER
G1 F1200 X135.759 Y99.7 E107.49344
G1 X147.359 Y99.7 E108.03358
G1 X147.359 Y135.3 E109.69127
G1 X135.759 Y135.3 E110.23141
G0 F6000 X136.029 Y135.03
G0 X136.269 Y134.51
G0 X136.549 Y134.51
;TYPE:SKIN
G1 F1200 X136.549 Y100.49 E111.81553
G1 X146.569 Y100.49 E112.2821
G1 X146.569 Y134.51 E113.86621
G1 X136.549 Y134.51 E114.33279
G0 F6000 X137.178 Y134.349
G1 F1200 X136.708 Y133.88 E114.3637
G0 F6000 X136.708 Y133.314
G1 F1200 X137.743 Y134.349 E114.43186
G0 F6000 X138.309 Y134.349
G1 F1200 X136.708 Y132.748 E114.53729
G0 F6000 X136.708 Y132.183
G1 F1200 X138.875 Y134.349 E114.67996
G0 F6000 X139.44 Y134.349
G1 F1200 X136.708 Y131.617 E114.85986
G0 F6000 X136.708 Y131.051
G1 F1200 X140.006 Y134.349 E115.07704
G0 F6000 X140.572 Y134.349
G1 F1200 X136.708 Y130.485 E115.33149
G0 F6000 X136.708 Y129.92
G1 F1200 X141.137 Y134.349 E115.62315
G0 F6000 X141.703 Y134.349
G1 F1200 X136.708 Y129.354 E115.95208
G0 F6000 X136.708 Y128.788
G1 F1200 X142.269 Y134.349 E116.31828
G0 F6000 X142.834 Y134.349
G1 F1200 X136.708 Y128.223 E116.72169
G0 F6000 X136.708 Y127.657
G1 F1200 X143.4 Y134.349 E117.16237
G0 F6000 X143.966 Y134.349
G1 F1200 X136.708 Y127.091 E117.64032
G0 F6000 X136.708 Y126.526
G1 F1200 X144.531 Y134.349 E118.15548
G0 F6000 X145.097 Y134.349
G1 F1200 X136.708 Y125.96 E118.70791
G0 F6000 X136.708 Y125.394
G1 F1200 X145.663 Y134.349 E119.29761
G0 F6000 X146.228 Y134.349
G1 F1200 X136.708 Y124.829 E119.92452
G0 F6000 X136.708 Y124.263
G1 F1200 X146.408 Y133.963 E120.56328
G0 F6000 X146.408 Y133.397
G1 F1200 X136.708 Y123.697 E121.20204
G0 F6000 X136.708 Y123.132
G1 F1200 X146.408 Y132.832 E121.8408
G0 F6000 X146.408 Y132.266
G1 F1200 X136.708 Y122.566 E122.47956
G0 F6000 X136.708 Y122
G1 F1200 X146.408 Y131.7 E123.11833
G0 F6000 X146.408 Y131.135
G1 F1200 X136.708 Y121.434 E123.75712
G0 F6000 X136.708 Y120.869
G1 F1200 X146.408 Y130.569 E124.39588
G0 F6000 X146.408 Y130.003
G1 F1200 X136.708 Y120.303 E125.03464
G0 F6000 X136.708 Y119.737
G1 F1200 X146.408 Y129.438 E125.67344
G0 F6000 X146.408 Y128.872
G1 F1200 X136.708 Y119.172 E126.3122
G0 F6000 X136.708 Y118.606
G1 F1200 X146.408 Y128.306 E126.95096
G0 F6000 X146.408 Y127.74
G1 F1200 X136.708 Y118.04 E127.58972
G0 F6000 X136.708 Y117.475
G1 F1200 X146.408 Y127.175 E128.22848
G0 F6000 X146.408 Y126.609
G1 F1200 X136.708 Y116.909 E128.86725
G0 F6000 X136.708 Y116.343
G1 F1200 X146.408 Y126.043 E129.50601
G0 F6000 X146.408 Y125.478
G1 F1200 X136.708 Y115.778 E130.14477
G0 F6000 X136.708 Y115.212
G1 F1200 X146.408 Y124.912 E130.78353
G0 F6000 X146.408 Y124.346
G1 F1200 X136.708 Y114.646 E131.42229
G0 F6000 X136.708 Y114.081
G1 F1200 X146.408 Y123.781 E132.06105
G0 F6000 X146.408 Y123.215
G1 F1200 X136.708 Y113.515 E132.69981
G0 F6000 X136.708 Y112.949
G1 F1200 X146.408 Y122.649 E133.33858
G0 F6000 X146.408 Y122.084
G1 F1200 X136.708 Y112.384 E133.97734
G0 F6000 X136.708 Y111.818
G1 F1200 X146.408 Y121.518 E134.6161
G0 F6000 X146.408 Y120.952
G1 F1200 X136.708 Y111.252 E135.25486
G0 F6000 X136.708 Y110.686
G1 F1200 X146.408 Y120.387 E135.89366
G0 F6000 X146.408 Y119.821
G1 F1200 X136.708 Y110.121 E136.53242
G0 F6000 X136.708 Y109.555
G1 F1200 X146.408 Y119.255 E137.17118
G0 F6000 X146.408 Y118.689
G1 F1200 X136.708 Y108.989 E137.80994
G0 F6000 X136.708 Y108.424
G1 F1200 X146.408 Y118.124 E138.4487
G0 F6000 X146.408 Y117.558
G1 F1200 X136.708 Y107.858 E139.08746
G0 F6000 X136.708 Y107.292
G1 F1200 X146.408 Y116.992 E139.72622
G0 F6000 X146.408 Y116.427
G1 F1200 X136.708 Y106.727 E140.36499
G0 F6000 X136.708 Y106.161
G1 F1200 X146.408 Y115.861 E141.00375
G0 F6000 X146.408 Y115.295
G1 F1200 X136.708 Y105.595 E141.64251
G0 F6000 X136.708 Y105.03
G1 F1200 X146.408 Y114.73 E142.28127
G0 F6000 X146.408 Y114.164
G1 F1200 X136.708 Y104.464 E142.92003
G0 F6000 X136.708 Y103.898
G1 F1200 X146.408 Y113.598 E143.55879
G0 F6000 X146.408 Y113.033
G1 F1200 X136.708 Y103.333 E144.19756
G0 F6000 X136.708 Y102.767
