;FLAVOR:Marlin
;TIME:14402
;Filament used: 15.7954m
;Layer height: 0.3
;MINX:71.835
;MINY:74.536
;MINZ:0.28
;MAXX:162.3
;MAXY:160.413
;MAXZ:41.38
;Generated with Cura_SteamEngine 4.6.1
M140 S60
M105
M190 S60
M104 S210
M105
M109 S210
M82 ;absolute extrusion mode
; Ender 3 Custom Start G-code
G92 E0 ; Reset Extruder
G28 ; Home all axes
G1 Z2.0 F3000 ; Move Z Axis up little to prevent scratching of Heat Bed
G1 X0.1 Y20 Z0.3 F5000.0 ; Move to start position
G1 X0.1 Y200.0 Z0.3 F1500.0 E15 ; Draw the first line
G1 X0.4 Y200.0 Z0.3 F5000.0 ; Move to side a little
G1 X0.4 Y20 Z0.3 F1500.0 E30 ; Draw the second line
G92 E0 ; Reset Extruder
G1 Z2.0 F3000 ; Move Z Axis up little to prevent scratching of Heat Bed
G1 X5 Y20 Z0.3 F5000.0 ; Move over to prevent blob squish
G92 E0
G92 E0
G1 F2700 E-5
;LAYER_COUNT:138
;LAYER:0
M107
;MESH:board_holder.stl
G0 F6000 X140.301 Y156.724 Z0.28
;TYPE:WALL-INNER
G1 F2700 E0
G1 F1200 X140.947 Y156.792 E0.03025
G1 X141.591 Y156.735 E0.06035
G1 X142.212 Y156.552 E0.0905
G1 X142.787 Y156.251 E0.12072
G1 X143.291 Y155.843 E0.15091
G1 X143.706 Y155.346 E0.18106
G1 X144.015 Y154.777 E0.21121
G1 X144.209 Y154.159 E0.24137
G1 X144.276 Y153.515 E0.27152
G1 X144.221 Y152.87 E0.30166
G1 X144.036 Y152.248 E0.33188
G1 X143.736 Y151.674 E0.36204
G1 X143.328 Y151.17 E0.39223
G1 X142.831 Y150.755 E0.42238
G1 X142.261 Y150.446 E0.45257
G1 X141.644 Y150.252 E0.48269
G1 X141 Y150.184 E0.51285
G1 X140.354 Y150.241 E0.54304
G1 X139.732 Y150.424 E0.57323
G1 X139.159 Y150.725 E0.60337
G1 X138.655 Y151.133 E0.63357
G1 X138.24 Y151.63 E0.66372
G1 X137.931 Y152.199 E0.69387
G1 X137.737 Y152.817 E0.72403
G1 X137.666 Y153.485 E0.75531
G1 X137.73 Y154.133 E0.78563
G1 X137.91 Y154.73 E0.81466
G1 X138.21 Y155.302 E0.84474
G1 X138.618 Y155.806 E0.87493
G1 X139.115 Y156.221 E0.90508
G1 X139.684 Y156.53 E0.93523
G1 X140.301 Y156.724 E0.96535
G0 F6000 X140.383 Y156.33
;TYPE:WALL-OUTER
G1 F1200 X140.95 Y156.39 E0.9919
G1 X141.516 Y156.34 E1.01836
G1 X142.061 Y156.179 E1.04482
G1 X142.566 Y155.915 E1.07135
G1 X143.009 Y155.557 E1.09787
G1 X143.373 Y155.12 E1.12436
G1 X143.645 Y154.62 E1.15086
G1 X143.815 Y154.078 E1.17731
G1 X143.874 Y153.511 E1.20385
G1 X143.826 Y152.945 E1.2303
G1 X143.664 Y152.399 E1.25682
G1 X143.4 Y151.895 E1.28332
G1 X143.042 Y151.452 E1.30984
G1 X142.605 Y151.088 E1.33632
G1 X142.104 Y150.816 E1.36287
G1 X141.562 Y150.646 E1.38932
G1 X140.996 Y150.586 E1.41582
G1 X140.429 Y150.636 E1.44232
G1 X139.883 Y150.797 E1.46883
G1 X139.38 Y151.061 E1.49528
G1 X138.937 Y151.419 E1.5218
G1 X138.573 Y151.856 E1.54829
G1 X138.301 Y152.356 E1.57479
G1 X138.131 Y152.899 E1.60129
G1 X138.068 Y153.487 E1.62882
G1 X138.124 Y154.055 E1.6554
G1 X138.282 Y154.578 E1.68084
G1 X138.546 Y155.081 E1.70729
G1 X138.904 Y155.524 E1.73381
G1 X139.341 Y155.888 E1.7603
G1 X139.841 Y156.16 E1.7868
G1 X140.383 Y156.33 E1.81325
G0 F6000 X140.294 Y156.76
G1 F2700 E-3.18675
G0 F6000 X138.482 Y155.94
G0 X139.524 Y154.916
G0 X130.501 Y154.94
G0 X131.528 Y155.979
G0 X129.852 Y156.516
G0 X128.405 Y156.724
;TYPE:WALL-INNER
G1 F2700 E1.81325
G1 F1200 X129.051 Y156.792 E1.8435
G1 X129.695 Y156.735 E1.8736
G1 X130.316 Y156.552 E1.90375
G1 X130.891 Y156.251 E1.93397
G1 X131.394 Y155.843 E1.96413
G1 X131.81 Y155.346 E1.9943
G1 X132.118 Y154.777 E2.02443
G1 X132.312 Y154.16 E2.05455
G1 X132.383 Y153.491 E2.08588
G1 X132.322 Y152.867 E2.11507
G1 X132.14 Y152.248 E2.14511
G1 X131.84 Y151.674 E2.17527
G1 X131.431 Y151.17 E2.2055
G1 X130.935 Y150.755 E2.23561
G1 X130.365 Y150.446 E2.2658
G1 X129.748 Y150.252 E2.29592
G1 X129.104 Y150.184 E2.32607
G1 X128.458 Y150.241 E2.35627
G1 X127.837 Y150.424 E2.38641
G1 X127.262 Y150.725 E2.41663
G1 X126.759 Y151.133 E2.44679
G1 X126.344 Y151.63 E2.47694
G1 X126.035 Y152.199 E2.50709
G1 X125.841 Y152.817 E2.53725
G1 X125.77 Y153.485 E2.56853
G1 X125.834 Y154.133 E2.59885
G1 X126.014 Y154.73 E2.62789
G1 X126.314 Y155.302 E2.65796
G1 X126.722 Y155.806 E2.68816
G1 X127.218 Y156.221 E2.71827
G1 X127.788 Y156.53 E2.74846
G1 X128.405 Y156.724 E2.77858
G0 F6000 X128.487 Y156.33
;TYPE:WALL-OUTER
G1 F1200 X129.054 Y156.39 E2.80513
G1 X129.62 Y156.34 E2.83159
G1 X130.165 Y156.179 E2.85805
G1 X130.67 Y155.915 E2.88458
G1 X131.112 Y155.557 E2.91107
G1 X131.477 Y155.12 E2.93758
G1 X131.748 Y154.62 E2.96406
G1 X131.918 Y154.078 E2.99051
G1 X131.981 Y153.489 E3.0181
G1 X131.928 Y152.944 E3.04359
G1 X131.767 Y152.399 E3.07006
G1 X131.504 Y151.895 E3.09653
G1 X131.145 Y151.452 E3.12308
G1 X130.709 Y151.088 E3.14952
G1 X130.208 Y150.816 E3.17607
G1 X129.666 Y150.646 E3.20252
G1 X129.1 Y150.586 E3.22902
G1 X128.533 Y150.636 E3.25553
G1 X127.988 Y150.797 E3.28199
G1 X127.483 Y151.061 E3.30852
G1 X127.041 Y151.419 E3.33501
G1 X126.677 Y151.856 E3.36149
G1 X126.405 Y152.356 E3.388
G1 X126.235 Y152.899 E3.41449
G1 X126.172 Y153.487 E3.44203
G1 X126.228 Y154.055 E3.4686
G1 X126.386 Y154.578 E3.49404
G1 X126.65 Y155.081 E3.5205
G1 X127.008 Y155.524 E3.54702
G1 X127.444 Y155.888 E3.57346
G1 X127.945 Y156.16 E3.60001
G1 X128.487 Y156.33 E3.62646
G0 F6000 X128.398 Y156.76
G1 F2700 E-1.37354
G0 F6000 X126.586 Y155.94
G0 X127.629 Y154.916
G0 X118.711 Y154.92
G0 X118.608 Y154.937
G0 X115.728 Y154.912
G0 X115.645 Y154.922
G0 X106.814 Y154.927
G0 X106.729 Y154.923
G0 X103.835 Y154.916
G0 X103.754 Y154.929
G0 X94.817 Y154.936
G0 X95.84 Y155.979
G0 X94.006 Y156.735
;TYPE:WALL-INNER
G1 F2700 E3.62646
G1 F1200 X94.627 Y156.552 E3.65661
G1 X95.202 Y156.251 E3.68683
G1 X95.706 Y155.843 E3.71702
G1 X96.121 Y155.346 E3.74717
G1 X96.43 Y154.777 E3.77732
G1 X96.624 Y154.16 E3.80744
G1 X96.694 Y153.491 E3.83876
G1 X96.635 Y152.868 E3.8679
G1 X96.452 Y152.248 E3.898
G1 X96.151 Y151.674 E3.92818
G1 X95.743 Y151.17 E3.95837
G1 X95.246 Y150.755 E3.98852
G1 X94.676 Y150.446 E4.01871
G1 X94.059 Y150.252 E4.04883
G1 X93.415 Y150.184 E4.07898
G1 X92.769 Y150.241 E4.10918
G1 X92.147 Y150.424 E4.13937
G1 X91.574 Y150.725 E4.16951
G1 X91.07 Y151.133 E4.1997
G1 X90.655 Y151.63 E4.22985
G1 X90.346 Y152.199 E4.26
G1 X90.152 Y152.817 E4.29016
G1 X90.084 Y153.461 E4.32032
G1 X90.141 Y154.107 E4.35052
G1 X90.324 Y154.729 E4.38071
G1 X90.625 Y155.302 E4.41085
G1 X91.033 Y155.806 E4.44104
G1 X91.53 Y156.221 E4.47119
G1 X92.099 Y156.53 E4.50134
G1 X92.716 Y156.724 E4.53146
G1 X93.362 Y156.792 E4.5617
G1 X94.006 Y156.735 E4.59181
G0 F6000 X93.931 Y156.34
;TYPE:WALL-OUTER
G1 F1200 X94.476 Y156.179 E4.61827
G1 X94.981 Y155.915 E4.6448
G1 X95.424 Y155.557 E4.67132
G1 X95.788 Y155.12 E4.69781
G1 X96.06 Y154.62 E4.72431
G1 X96.23 Y154.078 E4.75076
G1 X96.292 Y153.489 E4.77834
G1 X96.24 Y152.944 E4.80383
G1 X96.079 Y152.399 E4.83029
G1 X95.815 Y151.895 E4.85679
G1 X95.457 Y151.452 E4.88331
G1 X95.02 Y151.088 E4.90979
G1 X94.519 Y150.816 E4.93634
G1 X93.977 Y150.646 E4.96279
G1 X93.411 Y150.586 E4.98929
G1 X92.844 Y150.636 E5.01579
G1 X92.298 Y150.797 E5.0423
G1 X91.795 Y151.061 E5.06875
G1 X91.352 Y151.419 E5.09527
G1 X90.988 Y151.856 E5.12176
G1 X90.716 Y152.356 E5.14826
G1 X90.546 Y152.899 E5.17476
G1 X90.486 Y153.465 E5.20126
G1 X90.536 Y154.032 E5.22776
G1 X90.697 Y154.578 E5.25427
G1 X90.961 Y155.081 E5.28072
G1 X91.319 Y155.524 E5.30724
G1 X91.756 Y155.888 E5.33373
G1 X92.256 Y156.16 E5.36023
G1 X92.798 Y156.33 E5.38668
G1 X93.365 Y156.39 E5.41323
G1 X93.931 Y156.34 E5.43969
G0 F6000 X94.013 Y156.772
G1 F2700 E0.43969
G0 F6000 X95.84 Y155.979
G0 X94.817 Y154.936
G0 X103.835 Y154.916
G0 X102.793 Y155.94
G0 X104.46 Y156.503
G0 X105.903 Y156.735
;TYPE:WALL-INNER
G1 F2700 E5.43969
G1 F1200 X106.525 Y156.552 E5.46988
G1 X107.098 Y156.251 E5.50002
G1 X107.621 Y155.828 E5.53134
G1 X108.018 Y155.343 E5.56052
G1 X108.326 Y154.777 E5.59053
G1 X108.52 Y154.16 E5.62064
G1 X108.591 Y153.491 E5.65197
G1 X108.53 Y152.867 E5.68116
G1 X108.348 Y152.248 E5.71121
G1 X108.047 Y151.674 E5.74139
G1 X107.639 Y151.17 E5.77158
G1 X107.142 Y150.755 E5.80173
G1 X106.573 Y150.446 E5.83188
G1 X105.956 Y150.252 E5.862
G1 X105.31 Y150.184 E5.89224
G1 X104.666 Y150.241 E5.92235
G1 X104.044 Y150.424 E5.95254
G1 X103.47 Y150.725 E5.98272
G1 X102.966 Y151.133 E6.01291
G1 X102.551 Y151.63 E6.04306
G1 X102.242 Y152.199 E6.07321
G1 X102.048 Y152.817 E6.10337
G1 X101.977 Y153.485 E6.13465
G1 X102.041 Y154.133 E6.16498
G1 X102.221 Y154.73 E6.19401
G1 X102.521 Y155.302 E6.22409
G1 X102.929 Y155.806 E6.25428
G1 X103.426 Y156.221 E6.28443
G1 X103.995 Y156.53 E6.31458
G1 X104.613 Y156.724 E6.34474
G1 X105.257 Y156.792 E6.37489
G1 X105.903 Y156.735 E6.40509
G0 F6000 X105.828 Y156.34
;TYPE:WALL-OUTER
G1 F1200 X106.374 Y156.179 E6.4316
G1 X106.877 Y155.915 E6.45805
G1 X107.338 Y155.543 E6.48563
G1 X107.685 Y155.119 E6.51115
G1 X107.956 Y154.62 E6.53759
G1 X108.126 Y154.078 E6.56404
G1 X108.189 Y153.489 E6.59162
G1 X108.136 Y152.944 E6.61712
G1 X107.975 Y152.399 E6.64358
G1 X107.711 Y151.895 E6.67007
G1 X107.353 Y151.452 E6.69659
G1 X106.916 Y151.088 E6.72308
G1 X106.416 Y150.816 E6.74958
G1 X105.874 Y150.646 E6.77603
G1 X105.307 Y150.586 E6.80258
G1 X104.741 Y150.636 E6.82904
G1 X104.195 Y150.797 E6.85554
G1 X103.691 Y151.061 E6.88204
G1 X103.248 Y151.419 E6.90856
G1 X102.884 Y151.856 E6.93504
G1 X102.612 Y152.356 E6.96155
G1 X102.442 Y152.899 E6.98804
G1 X102.379 Y153.487 E7.01558
G1 X102.435 Y154.055 E7.04215
G1 X102.593 Y154.578 E7.06759
G1 X102.857 Y155.081 E7.09404
G1 X103.215 Y155.524 E7.12057
G1 X103.652 Y155.888 E7.14705
G1 X104.152 Y156.16 E7.17355
G1 X104.695 Y156.33 E7.20005
G1 X105.261 Y156.39 E7.22655
G1 X105.828 Y156.34 E7.25306
G0 F6000 X105.909 Y156.772
G1 F2700 E2.25306
G0 F6000 X107.756 Y155.964
G0 X106.729 Y154.923
G0 X115.728 Y154.912
G0 X114.69 Y155.94
G0 X117.153 Y156.792
;TYPE:WALL-INNER
G1 F2700 E7.25306
G1 F1200 X117.799 Y156.735 E7.28325
G1 X118.421 Y156.552 E7.31344
G1 X118.994 Y156.251 E7.34358
G1 X119.498 Y155.843 E7.37378
G1 X119.913 Y155.346 E7.40393
G1 X120.222 Y154.777 E7.43408
G1 X120.416 Y154.16 E7.46419
G1 X120.487 Y153.491 E7.49552
G1 X120.426 Y152.867 E7.52471
G1 X120.244 Y152.248 E7.55476
G1 X119.943 Y151.674 E7.58494
G1 X119.535 Y151.17 E7.61513
G1 X119.038 Y150.755 E7.64528
G1 X118.469 Y150.446 E7.67543
G1 X117.852 Y150.252 E7.70555
G1 X117.206 Y150.184 E7.73579
G1 X116.562 Y150.241 E7.7659
G1 X115.941 Y150.424 E7.79604
G1 X115.366 Y150.725 E7.82626
G1 X114.863 Y151.133 E7.85642
G1 X114.448 Y151.63 E7.88657
G1 X114.138 Y152.199 E7.91674
G1 X113.945 Y152.817 E7.94689
G1 X113.874 Y153.485 E7.97817
G1 X113.938 Y154.133 E8.00849
G1 X114.117 Y154.73 E8.03751
G1 X114.417 Y155.303 E8.06763
G1 X114.826 Y155.806 E8.09782
G1 X115.322 Y156.221 E8.12793
G1 X115.892 Y156.53 E8.15812
G1 X116.509 Y156.724 E8.18824
G1 X117.153 Y156.792 E8.21839
G0 F6000 X117.157 Y156.39
;TYPE:WALL-OUTER
G1 F1200 X117.724 Y156.34 E8.2449
G1 X118.27 Y156.179 E8.2714
G1 X118.773 Y155.915 E8.29786
G1 X119.216 Y155.557 E8.32438
G1 X119.58 Y155.12 E8.35086
G1 X119.852 Y154.62 E8.37736
G1 X120.022 Y154.078 E8.40381
G1 X120.085 Y153.489 E8.4314
G1 X120.032 Y152.944 E8.45689
G1 X119.871 Y152.399 E8.48336
G1 X119.607 Y151.895 E8.50985
G1 X119.249 Y151.452 E8.53637
G1 X118.812 Y151.088 E8.56285
G1 X118.312 Y150.816 E8.58936
G1 X117.77 Y150.646 E8.61581
G1 X117.203 Y150.586 E8.64236
G1 X116.637 Y150.636 E8.66882
G1 X116.092 Y150.797 E8.69528
G1 X115.587 Y151.061 E8.72181
G1 X115.145 Y151.419 E8.7483
G1 X114.78 Y151.856 E8.77481
G1 X114.508 Y152.356 E8.80131
G1 X114.339 Y152.899 E8.82779
G1 X114.276 Y153.487 E8.85533
G1 X114.332 Y154.055 E8.88191
G1 X114.489 Y154.578 E8.90733
G1 X114.753 Y155.082 E8.93383
G1 X115.112 Y155.524 E8.96034
G1 X115.548 Y155.888 E8.98679
G1 X116.049 Y156.16 E9.01333
G1 X116.591 Y156.33 E9.03978
G1 X117.157 Y156.39 E9.06629
G0 F6000 X117.154 Y156.83
G1 F2700 E4.06629
G0 F6000 X115.817 Y156.706
G0 X115.817 Y158.938
G0 X84.931 Y159.148
;TYPE:WALL-INNER
G1 F2700 E9.06629
G1 F1200 X84.931 Y158.949 E9.07555
G1 X84.96 Y146.962 E9.63372
G1 X84.96 Y146.753 E9.64345
G1 X84.751 Y146.763 E9.64968
G1 X84.208 Y146.789 E9.67499
G1 X73.1 Y146.789 E10.19222
G1 X73.1 Y76.004 E13.48827
G1 X161.9 Y76.004 E17.62317
G1 X161.9 Y146.789 E20.91922
G1 X150.867 Y146.789 E21.43296
G1 X150.667 Y146.789 E21.44227
G1 X150.667 Y146.989 E21.4483
G1 X150.671 Y147.714 E21.48206
G1 X150.67 Y159.148 E22.01448
G1 X85.13 Y159.148 E25.06629
G1 X84.931 Y159.148 E25.07229
G0 F6000 X84.531 Y159.548
;TYPE:WALL-OUTER
G1 F1200 X84.531 Y159.27 E25.08523
G1 X84.56 Y147.173 E25.64852
G1 X84.227 Y147.189 E25.66405
G1 X72.7 Y147.189 E26.20079
G1 X72.7 Y75.604 E29.53409
G1 X162.3 Y75.604 E33.70624
G1 X162.3 Y147.189 E37.03954
G1 X151.069 Y147.189 E37.5625
G1 X151.071 Y147.714 E37.58695
G1 X151.07 Y159.548 E38.13799
G1 X84.531 Y159.548 E41.23632
G0 F6000 X84.801 Y159.278
G0 X85.042 Y158.757
G0 X85.321 Y158.758
;TYPE:SKIN
G1 F1200 X85.35 Y146.344 E41.81437
G1 X84.189 Y146.399 E41.86849
G1 X73.49 Y146.399 E42.36668
G1 X73.49 Y76.394 E45.62641
G1 X161.51 Y76.394 E49.72499
G1 X161.51 Y146.399 E52.98471
G1 X150.275 Y146.399 E53.50786
G1 X150.281 Y147.716 E53.56919
G1 X150.28 Y158.758 E54.08335
G1 X85.321 Y158.758 E57.10811
G1 F2700 E52.10811
G0 F6000 X85.042 Y158.757
G0 X85.105 Y158.945
G0 X90.533 Y158.938
G0 X91.422 Y156.38
G0 X90.533 Y155.364
G0 X90.297 Y155.517
G1 F2700 E57.10811
G1 F1200 X90.754 Y156.081 E57.14192
G1 X91.31 Y156.545 E57.17564
G1 X91.946 Y156.891 E57.20935
G1 X92.636 Y157.108 E57.24303
G1 X93.359 Y157.184 E57.27688
G1 X94.079 Y157.12 E57.31054
G1 X94.774 Y156.915 E57.34428
G1 X95.417 Y156.579 E57.37806
G1 X95.981 Y156.122 E57.41186
G1 X96.445 Y155.566 E57.44559
G1 X96.791 Y154.93 E57.4793
G1 X97.008 Y154.24 E57.51298
G1 X97.086 Y153.493 E57.54795
G1 X97.019 Y152.794 E57.58065
G1 X96.815 Y152.101 E57.61429
G1 X96.479 Y151.459 E57.64803
G1 X96.022 Y150.895 E57.68183
G1 X95.466 Y150.431 E57.71555
G1 X94.829 Y150.085 E57.74931
G1 X94.139 Y149.868 E57.78299
G1 X93.419 Y149.792 E57.8167
G1 X92.696 Y149.856 E57.8505
G1 X92 Y150.061 E57.88428
G1 X91.359 Y150.397 E57.91798
G1 X90.795 Y150.854 E57.95178
G1 X90.331 Y151.41 E57.9855
G1 X89.985 Y152.046 E58.01922
G1 X89.768 Y152.737 E58.05294
G1 X89.692 Y153.457 E58.08665
G1 X89.756 Y154.18 E58.12045
G1 X89.961 Y154.876 E58.15424
G1 X90.297 Y155.517 E58.18794
G1 F2700 E53.18794
G0 F6000 X90.533 Y155.364
G0 X92.163 Y156.381
G0 X92.749 Y156.566
G0 X93.363 Y156.631
G0 X93.976 Y156.576
G0 X94.565 Y156.402
G0 X95.112 Y156.116
G0 X95.5 Y155.802
G0 X96.812 Y154.199
G0 X95.378 Y153.905
G0 X103.255 Y153.567
G0 X101.789 Y153.709
G0 X101.933 Y154.156
G0 X101.657 Y154.209
G1 F2700 E58.18794
G1 F1200 X101.858 Y154.878 E58.22046
G1 X102.193 Y155.517 E58.25406
G1 X102.65 Y156.081 E58.28786
G1 X103.206 Y156.545 E58.32158
G1 X103.842 Y156.891 E58.3553
G1 X104.533 Y157.108 E58.38902
G1 X105.253 Y157.184 E58.42273
G1 X105.976 Y157.12 E58.45653
G1 X106.672 Y156.915 E58.49032
G1 X107.313 Y156.579 E58.52402
G1 X107.898 Y156.106 E58.55905
G1 X108.343 Y155.561 E58.59181
G1 X108.687 Y154.931 E58.62523
G1 X108.904 Y154.24 E58.65896
G1 X108.983 Y153.493 E58.69393
G1 X108.914 Y152.793 E58.72669
G1 X108.711 Y152.101 E58.76027
G1 X108.375 Y151.459 E58.79401
G1 X107.918 Y150.895 E58.82781
G1 X107.362 Y150.431 E58.86153
G1 X106.726 Y150.085 E58.89524
G1 X106.036 Y149.868 E58.92892
G1 X105.313 Y149.792 E58.96278
G1 X104.593 Y149.856 E58.99643
G1 X103.897 Y150.061 E59.03022
G1 X103.255 Y150.397 E59.06396
G1 X102.691 Y150.854 E59.09776
G1 X102.227 Y151.41 E59.13148
G1 X101.881 Y152.046 E59.1652
G1 X101.664 Y152.737 E59.19892
G1 X101.585 Y153.483 E59.23385
G1 X101.657 Y154.209 E59.26782
G1 F2700 E54.26782
G0 F6000 X101.933 Y154.156
G0 X103.044 Y155.693
G0 X103.517 Y156.087
G0 X104.059 Y156.381
G0 X104.646 Y156.566
G0 X105.259 Y156.631
G0 X105.872 Y156.576
G0 X106.464 Y156.402
G0 X107.008 Y156.116
G0 X107.508 Y155.714
G0 X107.813 Y155.342
G0 X108.77 Y153.621
G0 X107.32 Y153.485
G0 X115.145 Y153.486
G0 X113.683 Y153.484
G0 X113.83 Y154.156
G0 X113.554 Y154.209
G1 F2700 E59.26782
G1 F1200 X113.754 Y154.878 E59.30034
G1 X114.09 Y155.519 E59.33404
G1 X114.547 Y156.081 E59.36777
G1 X115.102 Y156.545 E59.40145
G1 X115.739 Y156.891 E59.43521
G1 X116.429 Y157.108 E59.46889
G1 X117.149 Y157.184 E59.5026
