;FLAVOR:Marlin
;TIME:6943
;Filament used: 6.14654m
;Layer height: 0.3
;MINX:96.272
;MINY:72.896
;MINZ:0.28
;MAXX:139.48
;MAXY:162.128
;MAXZ:32.38
;Generated with Cura_SteamEngine 4.6.1
M140 S50
M105
M190 S50
M104 S200
M105
M109 S200
M82 ;absolute extrusion mode
; Ender 3 Custom Start G-code
G92 E0 ; Reset Extruder
G28 ; Home all axes
G1 Z2.0 F3000 ; Move Z Axis up little to prevent scratching of Heat Bed
G1 X0.1 Y20 Z0.3 F5000.0 ; Move to start position
G1 X0.1 Y200.0 Z0.3 F1500.0 E15 ; Draw the first line
G1 X0.4 Y200.0 Z0.3 F5000.0 ; Move to side a little
G1 X0.4 Y20 Z0.3 F1500.0 E30 ; Draw the second line
G92 E0 ; Reset Extruder
G1 Z2.0 F3000 ; Move Z Axis up little to prevent scratching of Heat Bed
G1 X5 Y20 Z0.3 F5000.0 ; Move over to prevent blob squish
G92 E0
G92 E0
G1 F2700 E-5
;LAYER_COUNT:108
;LAYER:0
M107
G0 F6000 X133.441 Y81.631 Z0.28
;TYPE:SKIRT
G1 F2700 E0
G1 F1200 X133.623 Y81.582 E0.00878
G1 X133.688 Y81.551 E0.01213
G1 X133.688 Y153.562 E3.36526
G1 X133.394 Y153.456 E3.37982
G1 X133.064 Y153.413 E3.39531
G1 X133.17 Y131.279 E4.42598
G1 X133.191 Y130.832 E4.44681
G1 X133.314 Y105.13 E5.64362
G1 X133.334 Y104.701 E5.66362
G1 X133.441 Y81.631 E6.73786
G0 F6000 X133.146 Y81.3
G1 F1200 X133.548 Y81.182 E6.75737
G1 X133.92 Y80.989 E6.77689
G1 X134.088 Y80.854 E6.78692
G1 X134.088 Y154.252 E10.20464
G1 X133.96 Y154.147 E10.21235
G1 X133.593 Y153.946 E10.23183
G1 X133.193 Y153.819 E10.25138
G1 X132.728 Y153.769 E10.27315
G1 X132.663 Y153.769 E10.27618
G1 X132.77 Y131.276 E11.32356
G1 X132.791 Y130.831 E11.3443
G1 X132.914 Y105.126 E12.54125
G1 X132.934 Y104.699 E12.56116
G1 X133.041 Y81.31 E13.65026
G1 X133.146 Y81.3 E13.65517
G0 F6000 X133.106 Y80.9
G1 F1200 X133.466 Y80.782 E13.67281
G1 X133.793 Y80.592 E13.69042
G1 X134.002 Y80.413 E13.70323
G1 X134.488 Y79.927 E13.73524
G1 X134.488 Y155.183 E17.23947
G1 X134.001 Y154.696 E17.27154
G1 X133.706 Y154.458 E17.28919
G1 X133.368 Y154.287 E17.30683
G1 X133.002 Y154.19 E17.32446
G1 X132.728 Y154.169 E17.33726
G1 X132.261 Y154.169 E17.359
G1 X132.37 Y131.252 E18.42612
G1 X132.391 Y130.829 E18.44585
G1 X132.514 Y105.103 E19.64377
G1 X132.534 Y104.698 E19.66265
G1 X132.641 Y82.159 E20.71217
G1 X132.641 Y80.94 E20.76893
G1 X132.729 Y80.94 E20.77303
G1 X133.106 Y80.9 E20.79069
G0 F6000 X133.061 Y80.5
G1 F1200 X133.373 Y80.383 E20.8062
G1 X133.719 Y80.13 E20.82616
G1 X134.305 Y79.544 E20.86475
G1 X134.464 Y79.341 E20.87676
G1 X134.712 Y79.536 E20.89145
G1 X134.888 Y79.616 E20.90045
G1 X134.888 Y155.492 E24.43355
G1 X134.796 Y155.526 E24.43812
G1 X134.457 Y155.774 E24.45768
G1 X134.304 Y155.565 E24.46974
G1 X133.718 Y154.979 E24.50833
G1 X133.455 Y154.773 E24.52388
G1 X133.151 Y154.634 E24.53945
G1 X132.728 Y154.569 E24.55938
G1 X131.859 Y154.569 E24.59984
G1 X131.97 Y131.248 E25.68578
G1 X131.991 Y130.827 E25.70541
G1 X132.114 Y105.099 E26.90342
G1 X132.134 Y104.696 E26.92221
G1 X132.241 Y82.157 E27.97173
G1 X132.241 Y80.54 E28.04703
G1 X132.729 Y80.54 E28.06975
G1 X133.061 Y80.5 E28.08532
G0 F6000 X133.008 Y80.1
G1 F1200 X133.265 Y79.984 E28.09845
G1 X133.436 Y79.847 E28.10865
G1 X134.022 Y79.261 E28.14724
G1 X134.191 Y79.035 E28.16038
G1 X134.291 Y78.771 E28.17353
G1 X134.311 Y78.59 E28.18201
G1 X134.45 Y78.765 E28.19241
G1 X134.732 Y79.047 E28.21098
G1 X134.958 Y79.216 E28.22413
G1 X135.222 Y79.316 E28.23727
G1 X135.316 Y79.326 E28.24167
G1 X135.288 Y79.463 E28.24818
G1 X135.288 Y155.649 E31.79572
G1 X135.315 Y155.787 E31.80227
G1 X135.161 Y155.809 E31.80951
G1 X134.904 Y155.925 E31.82264
G1 X134.733 Y156.062 E31.83285
G1 X134.451 Y156.344 E31.85142
G1 X134.311 Y156.532 E31.86233
G1 X134.274 Y156.276 E31.87438
G1 X134.158 Y156.019 E31.88751
G1 X134.021 Y155.848 E31.89771
G1 X133.435 Y155.262 E31.9363
G1 X133.209 Y155.093 E31.94944
G1 X132.945 Y154.993 E31.96258
G1 X132.728 Y154.969 E31.97275
G1 X131.457 Y154.969 E32.03193
G1 X131.57 Y131.245 E33.13663
G1 X131.59 Y130.874 E33.15393
G1 X131.714 Y105.096 E34.35428
G1 X131.733 Y104.743 E34.37074
G1 X131.841 Y82.155 E35.42254
G1 X131.841 Y80.14 E35.51637
G1 X132.729 Y80.14 E35.55772
G1 X133.008 Y80.1 E35.57084
G0 F6000 X132.944 Y79.7
G1 F1200 X133.153 Y79.564 E35.58245
G1 X133.739 Y78.978 E35.62104
G1 X133.863 Y78.799 E35.63118
G1 X133.915 Y78.554 E35.64285
G1 X133.914 Y74.246 E35.84344
G1 X134.557 Y74.246 E35.87339
G1 X134.557 Y78.058 E36.05089
G1 X134.597 Y78.273 E36.06107
G1 X134.733 Y78.482 E36.07268
G1 X135.015 Y78.764 E36.09125
G1 X135.194 Y78.888 E36.10139
G1 X135.439 Y78.94 E36.11305
G1 X135.858 Y78.94 E36.13256
G1 X135.736 Y79.228 E36.14713
G1 X135.688 Y79.463 E36.1583
G1 X135.688 Y155.649 E39.70584
G1 X135.734 Y155.878 E39.71671
G1 X135.854 Y156.169 E39.73137
G1 X135.44 Y156.169 E39.75065
G1 X135.225 Y156.209 E39.76083
G1 X135.016 Y156.345 E39.77244
G1 X134.734 Y156.627 E39.79101
G1 X134.61 Y156.806 E39.80115
G1 X134.558 Y157.051 E39.81281
G1 X134.556 Y160.863 E39.99032
G1 X133.914 Y160.863 E40.02021
G1 X133.914 Y156.555 E40.22081
G1 X133.874 Y156.34 E40.23099
G1 X133.738 Y156.131 E40.2426
G1 X133.152 Y155.545 E40.28119
G1 X132.973 Y155.421 E40.29133
G1 X132.728 Y155.369 E40.30299
G1 X131.055 Y155.369 E40.3809
G1 X131.17 Y131.222 E41.50529
G1 X131.19 Y130.853 E41.5225
G1 X131.314 Y105.073 E42.72294
G1 X131.333 Y104.722 E42.73931
G1 X131.441 Y82.153 E43.79023
G1 X131.441 Y79.74 E43.90259
G1 X132.729 Y79.74 E43.96256
G1 X132.944 Y79.7 E43.97274
G0 F6000 X132.729 Y79.34
G1 F1200 X132.87 Y79.281 E43.97986
G1 X133.456 Y78.695 E44.01845
G1 X133.515 Y78.554 E44.02557
G1 X133.514 Y73.846 E44.24479
G1 X134.957 Y73.846 E44.31198
G1 X134.957 Y78.058 E44.50811
G1 X135.016 Y78.199 E44.51523
G1 X135.298 Y78.481 E44.5338
G1 X135.439 Y78.54 E44.54092
G1 X136.463 Y78.54 E44.5886
G1 X136.104 Y79.385 E44.63135
G1 X136.088 Y79.463 E44.63506
G1 X136.088 Y155.649 E48.1826
G1 X136.103 Y155.725 E48.1862
G1 X136.452 Y156.569 E48.22873
G1 X135.44 Y156.569 E48.27585
G1 X135.299 Y156.628 E48.28297
G1 X135.017 Y156.91 E48.30154
G1 X134.958 Y157.051 E48.30866
G1 X134.956 Y161.254 E48.50437
G1 X133.514 Y161.263 E48.57151
G1 X133.514 Y156.555 E48.79074
G1 X133.455 Y156.414 E48.79786
G1 X132.869 Y155.828 E48.83645
G1 X132.728 Y155.769 E48.84356
G1 X130.653 Y155.769 E48.94018
G1 X130.77 Y131.217 E50.08344
G1 X130.791 Y130.831 E50.10144
G1 X130.914 Y105.068 E51.30109
G1 X130.934 Y104.7 E51.31825
G1 X131.041 Y82.151 E52.36824
G1 X131.041 Y79.34 E52.49913
G1 X132.729 Y79.34 E52.57773
G0 F6000 X103.848 Y79.34
G1 F1200 X103.848 Y155.769 E56.13658
G1 X102.271 Y155.769 E56.21001
G1 X102.13 Y155.828 E56.21713
G1 X101.544 Y156.414 E56.25572
G1 X101.485 Y156.555 E56.26284
G1 X101.486 Y161.263 E56.48206
G1 X100.043 Y161.263 E56.54925
G1 X100.044 Y157.681 E56.71605
G1 X100.008 Y157.567 E56.72161
G1 X99.78 Y157.24 E56.74018
G1 X99.685 Y157.166 E56.74578
G1 X98.296 Y156.652 E56.81475
G1 X98.785 Y155.471 E56.87427
G1 X98.8 Y155.394 E56.87792
G1 X98.8 Y79.482 E60.4127
G1 X98.785 Y79.405 E60.41635
G1 X98.38 Y78.428 E60.4656
G1 X99.737 Y77.677 E60.53782
G1 X99.812 Y77.604 E60.54269
G1 X100.015 Y77.26 E60.56129
G1 X100.043 Y77.158 E60.56622
G1 X100.044 Y73.855 E60.72002
G1 X101.485 Y73.846 E60.78712
G1 X101.486 Y78.554 E61.00634
G1 X101.545 Y78.695 E61.01346
G1 X102.131 Y79.281 E61.05205
G1 X102.272 Y79.34 E61.05917
G1 X103.848 Y79.34 E61.13255
G0 F6000 X103.448 Y79.74
G1 F1200 X103.448 Y155.369 E64.65415
G1 X102.271 Y155.369 E64.70896
G1 X102.056 Y155.409 E64.71914
G1 X101.847 Y155.545 E64.73075
G1 X101.261 Y156.131 E64.76934
G1 X101.137 Y156.31 E64.77948
G1 X101.085 Y156.555 E64.79115
G1 X101.086 Y160.863 E64.99174
G1 X100.443 Y160.863 E65.02169
G1 X100.444 Y157.681 E65.16985
G1 X100.404 Y157.467 E65.17999
G1 X100.336 Y157.338 E65.18678
G1 X100.108 Y157.011 E65.20534
G1 X99.953 Y156.858 E65.21548
G1 X99.824 Y156.791 E65.22225
G1 X98.824 Y156.421 E65.2719
G1 X99.154 Y155.624 E65.31207
G1 X99.2 Y155.394 E65.32299
G1 X99.2 Y79.482 E68.85777
G1 X99.154 Y79.252 E68.86869
G1 X98.886 Y78.606 E68.90126
G1 X99.931 Y78.027 E68.95689
G1 X100.157 Y77.807 E68.97158
G1 X100.36 Y77.463 E68.99017
G1 X100.443 Y77.158 E69.00489
G1 X100.444 Y74.246 E69.14049
G1 X101.085 Y74.246 E69.17034
G1 X101.086 Y78.554 E69.37093
G1 X101.126 Y78.769 E69.38112
G1 X101.262 Y78.978 E69.39273
G1 X101.848 Y79.564 E69.43132
G1 X102.027 Y79.688 E69.44146
G1 X102.272 Y79.74 E69.45312
G1 X103.448 Y79.74 E69.50788
G0 F6000 X103.048 Y80.14
G1 F1200 X103.048 Y154.969 E72.99223
G1 X102.271 Y154.969 E73.02841
G1 X101.992 Y155.009 E73.04153
G1 X101.735 Y155.125 E73.05466
G1 X101.564 Y155.262 E73.06487
G1 X100.978 Y155.848 E73.10346
G1 X100.809 Y156.074 E73.1166
G1 X100.709 Y156.338 E73.12974
G1 X100.685 Y156.555 E73.13991
G1 X100.685 Y157.153 E73.16775
G1 X100.436 Y156.782 E73.18856
G1 X100.244 Y156.576 E73.20167
G1 X99.963 Y156.416 E73.21673
G1 X99.353 Y156.19 E73.24702
G1 X99.524 Y155.777 E73.26783
G1 X99.6 Y155.394 E73.28602
G1 X99.6 Y79.482 E76.8208
G1 X99.524 Y79.099 E76.83898
G1 X99.393 Y78.782 E76.85495
G1 X100.125 Y78.377 E76.8939
G1 X100.35 Y78.207 E76.90703
G1 X100.501 Y78.01 E76.91859
G1 X100.686 Y77.697 E76.93552
G1 X100.686 Y78.554 E76.97543
G1 X100.726 Y78.834 E76.9886
G1 X100.842 Y79.091 E77.00173
G1 X100.979 Y79.261 E77.01189
G1 X101.565 Y79.847 E77.05048
G1 X101.791 Y80.016 E77.06362
G1 X102.055 Y80.116 E77.07677
G1 X102.272 Y80.14 E77.08694
G1 X103.048 Y80.14 E77.12307
G0 F6000 X102.648 Y80.54
G1 F1200 X102.648 Y154.569 E80.57017
G1 X102.271 Y154.569 E80.58772
G1 X101.939 Y154.609 E80.6033
G1 X101.627 Y154.726 E80.61881
G1 X101.281 Y154.979 E80.63877
G1 X100.695 Y155.565 E80.67736
G1 X100.489 Y155.828 E80.69292
G1 X100.35 Y156.132 E80.70848
G1 X100.344 Y156.168 E80.71018
G1 X100.267 Y156.115 E80.71453
G1 X100.101 Y156.041 E80.723
G1 X99.881 Y155.96 E80.73391
G1 X99.984 Y155.608 E80.75099
G1 X100 Y155.394 E80.76098
G1 X100 Y79.482 E84.29576
G1 X99.96 Y79.15 E84.31133
G1 X99.898 Y78.96 E84.32064
G1 X100.308 Y78.733 E84.34246
G1 X100.326 Y78.886 E84.34964
G1 X100.443 Y79.199 E84.3652
G1 X100.696 Y79.544 E84.38512
G1 X101.282 Y80.13 E84.42371
G1 X101.545 Y80.336 E84.43926
G1 X101.849 Y80.475 E84.45483
G1 X102.272 Y80.54 E84.47475
G1 X102.648 Y80.54 E84.49226
G0 F6000 X102.248 Y80.938
G1 F1200 X102.248 Y154.171 E87.9023
G1 X101.894 Y154.209 E87.91888
G1 X101.534 Y154.327 E87.93652
G1 X101.207 Y154.517 E87.95413
G1 X100.998 Y154.696 E87.96694
G1 X100.412 Y155.282 E88.00553
G1 X100.4 Y79.812 E91.51973
G1 X100.999 Y80.413 E91.55924
G1 X101.294 Y80.651 E91.57689
G1 X101.632 Y80.822 E91.59453
G1 X101.998 Y80.919 E91.61216
G1 X102.248 Y80.938 E91.62383
G0 F6000 X101.848 Y81.294
G1 F1200 X101.848 Y153.811 E95.00053
G1 X101.452 Y153.927 E95.01974
G1 X101.08 Y154.12 E95.03926
G1 X100.8 Y154.345 E95.05598
G1 X100.8 Y80.765 E98.48218
G1 X101.04 Y80.962 E98.49663
G1 X101.407 Y81.163 E98.51612
G1 X101.807 Y81.29 E98.53566
G1 X101.848 Y81.294 E98.53758
G0 F6000 X101.448 Y81.596
G1 F1200 X101.448 Y153.508 E101.8861
G1 X101.377 Y153.527 E101.88953
G1 X101.2 Y153.61 E101.89863
G1 X101.2 Y81.506 E105.25609
G1 X101.448 Y81.596 E105.26838
G1 F2700 E100.26838
;MESH:ball_screw_attachment-ball_screw_attachment.stl
G0 F6000 X102.899 Y156.104
G0 X102.899 Y157.183
G0 X131.732 Y157.551
G0 X131.914 Y160.863
;TYPE:WALL-INNER
G1 F2700 E105.26838
G1 F1200 X103.086 Y160.863 E106.61073
G1 X103.085 Y157.568 E106.76416
G1 X103.085 Y157.369 E106.77343
G1 X103.284 Y157.369 E106.77942
G1 X131.914 Y157.369 E108.11255
G1 X131.914 Y160.863 E108.27525
G0 F6000 X132.314 Y161.263
;TYPE:WALL-OUTER
G1 F1200 X102.686 Y161.263 E109.65485
G1 X102.685 Y156.969 E109.8548
G1 X132.314 Y156.969 E111.23445
G1 X132.314 Y161.263 E111.4344
G0 F6000 X132.044 Y160.993
G0 X131.804 Y160.473
G0 X131.524 Y160.473
;TYPE:SKIN
G1 F1200 X103.476 Y160.473 E112.74043
G1 X103.475 Y157.759 E112.8668
G1 X131.524 Y157.759 E114.17288
G1 X131.524 Y160.473 E114.29926
G0 F6000 X131.804 Y160.473
G0 X131.804 Y158.516
G0 X131.363 Y158.516
G1 F1200 X130.765 Y157.918 E114.33864
G0 F6000 X130.199 Y157.918
G1 F1200 X131.363 Y159.082 E114.41529
G0 F6000 X131.363 Y159.647
G1 F1200 X129.633 Y157.918 E114.52918
G0 F6000 X129.068 Y157.918
G1 F1200 X131.363 Y160.213 E114.68031
G0 F6000 X130.896 Y160.312
G1 F1200 X128.502 Y157.918 E114.83796
G0 F6000 X127.936 Y157.918
G1 F1200 X130.331 Y160.312 E114.99564
G0 F6000 X129.765 Y160.312
G1 F1200 X127.371 Y157.918 E115.15329
G0 F6000 X126.805 Y157.918
G1 F1200 X129.199 Y160.312 E115.31094
G0 F6000 X128.634 Y160.312
G1 F1200 X126.239 Y157.918 E115.46862
G0 F6000 X125.674 Y157.918
G1 F1200 X128.068 Y160.312 E115.62627
G0 F6000 X127.502 Y160.312
G1 F1200 X125.108 Y157.918 E115.78392
G0 F6000 X124.542 Y157.918
G1 F1200 X126.936 Y160.312 E115.94157
G0 F6000 X126.371 Y160.312
G1 F1200 X123.977 Y157.918 E116.09922
G0 F6000 X123.411 Y157.918
G1 F1200 X125.805 Y160.312 E116.25686
G0 F6000 X125.239 Y160.312
G1 F1200 X122.845 Y157.918 E116.41451
G0 F6000 X122.279 Y157.918
G1 F1200 X124.674 Y160.312 E116.57219
G0 F6000 X124.108 Y160.312
G1 F1200 X121.714 Y157.918 E116.72984
G0 F6000 X121.148 Y157.918
G1 F1200 X123.542 Y160.312 E116.88749
G0 F6000 X122.977 Y160.312
G1 F1200 X120.582 Y157.918 E117.04517
G0 F6000 X120.017 Y157.918
G1 F1200 X122.411 Y160.312 E117.20282
G0 F6000 X121.845 Y160.312
G1 F1200 X119.451 Y157.918 E117.36047
G0 F6000 X118.885 Y157.918
G1 F1200 X121.28 Y160.312 E117.51815
G0 F6000 X120.714 Y160.312
G1 F1200 X118.32 Y157.918 E117.6758
G0 F6000 X117.754 Y157.918
G1 F1200 X120.148 Y160.312 E117.83345
G0 F6000 X119.583 Y160.312
G1 F1200 X117.188 Y157.918 E117.99113
G0 F6000 X116.623 Y157.918
G1 F1200 X119.017 Y160.312 E118.14878
G0 F6000 X118.451 Y160.312
G1 F1200 X116.057 Y157.918 E118.30643
G0 F6000 X115.491 Y157.918
G1 F1200 X117.886 Y160.312 E118.46411
G0 F6000 X117.32 Y160.312
G1 F1200 X114.926 Y157.918 E118.62176
G0 F6000 X114.36 Y157.918
G1 F1200 X116.754 Y160.312 E118.77941
G0 F6000 X116.188 Y160.312
G1 F1200 X113.794 Y157.918 E118.93706
G0 F6000 X113.229 Y157.918
G1 F1200 X115.623 Y160.312 E119.09471
G0 F6000 X115.057 Y160.312
G1 F1200 X112.663 Y157.918 E119.25236
G0 F6000 X112.097 Y157.918
G1 F1200 X114.491 Y160.312 E119.41001
G0 F6000 X113.926 Y160.312
G1 F1200 X111.531 Y157.918 E119.56769
G0 F6000 X110.966 Y157.918
G1 F1200 X113.36 Y160.312 E119.72534
G0 F6000 X112.794 Y160.312
G1 F1200 X110.4 Y157.918 E119.88299
G0 F6000 X109.834 Y157.918
G1 F1200 X112.229 Y160.312 E120.04067
G0 F6000 X111.663 Y160.312
G1 F1200 X109.269 Y157.918 E120.19832
G0 F6000 X108.703 Y157.918
G1 F1200 X111.097 Y160.312 E120.35597
G0 F6000 X110.532 Y160.312
G1 F1200 X108.137 Y157.918 E120.51365
G0 F6000 X107.572 Y157.918
G1 F1200 X109.966 Y160.312 E120.6713
G0 F6000 X109.4 Y160.312
G1 F1200 X107.006 Y157.918 E120.82895
G0 F6000 X106.44 Y157.918
G1 F1200 X108.835 Y160.312 E120.98663
G0 F6000 X108.269 Y160.312
G1 F1200 X105.875 Y157.918 E121.14428
G0 F6000 X105.309 Y157.918
G1 F1200 X107.703 Y160.312 E121.30193
G0 F6000 X107.137 Y160.312
G1 F1200 X104.743 Y157.918 E121.45958
G0 F6000 X104.178 Y157.918
G1 F1200 X106.572 Y160.312 E121.61723
G0 F6000 X106.006 Y160.312
G1 F1200 X103.634 Y157.94 E121.77343
G0 F6000 X103.634 Y158.506
G1 F1200 X105.44 Y160.312 E121.89235
G0 F6000 X104.875 Y160.312
G1 F1200 X103.634 Y159.072 E121.97404
G0 F6000 X103.635 Y159.638
G1 F1200 X104.309 Y160.312 E122.01843
G0 F6000 X103.743 Y160.312
G1 F1200 X103.635 Y160.204 E122.02554
G0 F6000 X103.286 Y160.205
G1 F2700 E117.02554
G0 F6000 X103.195 Y160.204
G0 X103.267 Y157.551
G0 X131.915 Y157.189
G0 X131.915 Y156.104
G0 X131.915 Y79.005
G0 X131.915 Y77.92
G0 X131.915 Y77.74
;TYPE:WALL-INNER
G1 F2700 E122.02554
G1 F1200 X131.716 Y77.74 E122.03481
G1 X103.086 Y77.74 E123.36794
G1 X103.085 Y74.445 E123.52137
G1 X103.085 Y74.246 E123.53063
G1 X103.284 Y74.246 E123.53663
G1 X131.914 Y74.246 E124.86976
G1 X131.915 Y77.541 E125.02319
G1 X131.915 Y77.74 E125.02919
G0 F6000 X132.315 Y78.14
;TYPE:WALL-OUTER
G1 F1200 X102.686 Y78.14 E126.40884
G1 X102.685 Y73.846 E126.60878
G1 X132.314 Y73.846 E127.98843
G1 X132.315 Y78.14 E128.18838
G0 F6000 X132.045 Y77.87
G0 X131.805 Y77.35
G0 X131.525 Y77.35
;TYPE:SKIN
G1 F1200 X103.476 Y77.35 E129.49446
